X: 1909
T: The Sweetheart Schottische
B: australian traditional tunes wiki
M:4/4
L:1/8
R: Schottische
Q: 1/4=100
K:G
V:1 
|:"G"B>c|d2g2 "C"e2g2|"G"d>B d>g b2a>g|"D"f2a2d2b>a|"G"g>a b>g"D"d2B>c|
"G"d2g2"C"e2g2|"G"d>B d>g b2a>g|"D"f2a>g f>d e>f|"G"g2g2g2:|
|:a>g|"D"f2 (3fga "G"b2a2|"A"c2e>f"A7"g4|"A"c2-(3ceg c'2b2|"D"a>g f>g a>b a>g|
"D"f2 (3fga "G"b2a2|"A"c2e>f"A7"g4|"A"c'>b a>g f>e d>c|"D"d2f2d2:|
% abcbook-tune_id 6342d53a603e6cfae03877b7


% abcbook-boost 0
% abcbook-tablature 
% abcbook-transpose 
% abcbook-lastupdated 1665324392228
% abcbook-soundfonts 
% abcbook-repeats 1
% NFF Book 2006

